src/lib/packages/icons/src/assets/filled/sparkle.svg

<svg width="24" height="24" viewBox="0 0 24 24" fill="none" xmlns="http://www.w3.org/2000/svg">
<path d="M21.137 11.519L18.41 10.74C15.902 10.023 13.976 8.09799 13.259 5.58899L12.48 2.862C12.357 2.433 11.641 2.433 11.518 2.862L10.739 5.58899C10.022 8.09799 8.09601 10.024 5.58801 10.74L2.86099 11.519C2.64599 11.58 2.49799 11.777 2.49799 12C2.49799 12.223 2.64599 12.419 2.86099 12.481L5.58801 13.26C8.09601 13.977 10.022 15.902 10.739 18.411L11.518 21.138C11.58 21.353 11.776 21.501 11.999 21.501C12.222 21.501 12.418 21.353 12.48 21.138L13.259 18.411C13.976 15.902 15.902 13.976 18.41 13.26L21.137 12.481C21.352 12.42 21.5 12.223 21.5 12C21.5 11.777 21.352 11.581 21.137 11.519Z" fill="currentColor"/>
</svg>

<svg xmlns="http://www.w3.org/2000/svg" width="24" height="24" fill="none"><path fill="currentColor" d="m21.137 11.519-2.727-.779a7.457 7.457 0 0 1-5.151-5.151l-.779-2.727c-.123-.429-.839-.429-.962 0l-.779 2.727a7.455 7.455 0 0 1-5.151 5.151l-2.727.779a.5.5 0 0 0 0 .962l2.727.779a7.457 7.457 0 0 1 5.151 5.151l.779 2.727a.501.501 0 0 0 .962 0l.779-2.727a7.455 7.455 0 0 1 5.151-5.151l2.727-.779a.5.5 0 0 0 0-.962Z"/></svg>
